X:1
T:Handel With Care
C:Bourr\'ee from Handel's Water Music - Dance by Gary Roodman, 1987
S:The Barnes Book of English Country Dance Tunes, Peter Barnes, ed.
Q:220
M:2/4
L:1/4
K:D
A |d f e d | a2 f2 | b a g f | g f2 :||: a | b g e f/g/ | a f d e/f/ | g f e d |
e/d/e/f/ e f/g/ | a f/g/ a g/f/ | g e/f/ g f/e/ | f d e>d | d3 :||
